!!!COM: Gomółka, Mikołaj
!!!CDT: ~1535-after 1591
!!!OTL@POL: Przypuść Panie w uszy swoje
!!!OTL@LAT: Verba mea auribus percipe
!!!AGn: Motet; Psalm
!!!SCn: Gom2005
!!!SCn: Gom2005
!!!voices: 4
**kern	**kern	**kern	**kern
*staff4	*staff3	*staff2	*staff1
*Ivox	*Ivox	*Ivox	*Ivox
*I"Bassus	*I"Tenor	*I"Altus	*I"Cantus
*I'B	*I'T	*I'A	*I'C
*clefGv2	*clefG2	*clefG2	*clefG2
*k[b-]	*k[b-]	*k[b-]	*k[b-]
*M2/1	*M2/1	*M2/1	*M2/1
*met(C|)	*met(C|)	*met(C|)	*met(C|)
=1-	=1-	=1-	=1-
1G	1g	1bn	1dd
1G	1g	1b	1dd
=2	=2	=2	=2
1c	1g	2.cc	1ee-
.	.	4bni	.
2d	2f#	2a	2dd
[2G	[2d	[2g	[2bn
=3	=3	=3	=3
2G]	2d]	2g]	2b]
2G	2d	2g	2bni
1C	4e	4g	1cc
.	2f	2a	.
.	4e	4g	.
=4	=4	=4	=4
2F	2f	2a	2cc
1f	1a	1cc	1ff
2c	2g	2cc	2ee
=5	=5	=5	=5
2d	2f	2a	2dd
2.G	2.d	2.g	2.bn
4G	4d	4g	4b
2G	2d	2g	2b
=6	=6	=6	=6
1C	1e	1g	2.cc
.	.	.	4b-
2F	2f	2c	2a
2D	2a	2d	2ff
=7	=7	=7	=7
2C#	2a	2e	2ee
2D	2a	2f	2dd
2A	2a	2e	2cc#i
2D	2a	2d	2dd
=8	=8	=8	=8
1G	1.g	1d	1b-
1G	.	1d	1b-
.	4f#	.	.
.	4e	.	.
=9	=9	=9	=9
2D	2f#	2d	2a
2G	2g	2d	2bn
2C	2e	2g	2cc
[2F	[2fni	[2a	[2cc
=10	=10	=10	=10
2F]	2f]	2a]	2cc]
2D	2f	2a	2dd
1A	1e	1a	1cc#
=11	=11	=11	=11
1F#	1d	1a	1.dd
1G	1d	2.g	.
.	.	.	2a
.	.	4f	.
=12	=12	=12	=12
0A	0c#	0e	0a
==	==	==	==
*-	*-	*-	*-
!!!CNT: Polish
!!!OCY: Poland
!!!LYR: Jan Kochanowski (1530-1584/08/22)
!!!GTL: Melodiae na Psałterz Polski
!!!EFL: 5/150
!!!PPR: Łazarz Andrysowicz
!!!PPP: Kraków
!!!PDT: 1580
!!!YEC: 2015 Marcin Konik
!!!ENC: Marcin Konik
!!!END: 2015/03/06
!!!EED: Marcin Konik
!!!EEV: 2015/03/06
!!!ONB: Translated from MusicXML and edited on 2015/03/06 by Marcin Konik
!!!CharacterEncoding: utf-8
!!muse2ps: i2I150v85,85,85,150Q16
!!title: @{OTL}, @{GTL}, ed. @{ENC}
